X: 191118
T: Sonny Sweeney's
S: "Johnny O'Leary of Sliabh Luachra" (#70)
Z: B.Black
L: 1/8
M: 2/4
Q: 275
R: polka
K: G
D>E G>A|Bd BG/B/|AG/A/ BA|AG E/F/G/E/|
D>E G>A|Bd BG/B/|AG/A/ BB/A/|1 G2 GG/E/ :|2\
G2 G2||
g2 e/f/g/e/|dB (3d/e/d/ B/A/|G>B AB|AG ED|
gf/g/ e/f/g/e/|dB (3d/e/d/ B/A/|G>B AB|AG G2|
g2 e/f/g/e/|dB (3d/e/d/ B/A/|G>B AB|AG E/F/G/E/|
D>E G>A|Bd BG/B/|AG/A/ B>A|G2 GG/E/ ||
